!!!!SEGMENT: pl-wtm--1481-sp-7693--001-006_szymanowski-karol--szesc-piesni-op-20-no-6-na-pustej-trzcinie.krn
!!!cenid: 19xx:63
!!!COM: Szymanowski, Karol
!!!COM-rismID: pe30106403
!!!CDT: 1882-1937
!!!CNT: Polish
!!!GTL: Sześć pieśni Op. 20
!!!OTL: No. 6. Na pustej trzcinie
!!!OMV: 006
!!!PDT: 1925
!!!AGN: Secular; Song
!!!YEC: Copyright 2022 Narodowy Instytut Fryderyka Chopina (https://polishscores.org)
!!!YEM: License CC-BY-4.0 (https://creativecommons.org/licenses/by/4.0)
!!!SMS-siglum: PL-Wtm
!!!SMS-shelfmark: 1481 śp 7693
!!!SMS-variant:
!!!SMS-altvar:
!!!SMS-shelfwork: 001-006 G
!!!NIFC-rismSourceID: 1001210639
!!!NIFC-rismChildID: 1001210639
!!!NIFC-islandoraID: pl-wtm:73423
!!!URL-pdf-islandora: https://repozytorium.nifc.pl/islandora/object/pl-wtm%3A73423/datastream/PDF/view
!!!URL-scan: https://polish.musicsources.pl/pl/lokalizacje/galeria/druki-muzyczne/18683/11 @EN{Scan on Polish Music Sources Website} @PL{Skany w portalu Dziedzictwo Muzyki Polskiej w otwartym dostępie}
!!!IIIF:
!!!ONB-nifc: UWAGA: str. 11-13.
!!!AIN: 1 canto 2 forte
!!!key: b-
**kern	**kern	**dynam	**kern	**text	**text	**text	**dynam
*part3	*part2	*part2	*part1	*part1	*part1	*part1	*part1
*staff3	*staff2	*	*staff1	*staff1	*staff1	*staff1	*
*I"Piano	*I"Piano	*	*I"Canto	*	*	*	*
*I'P-no	*I'P-no	*	*I'C.	*	*	*	*
*Iforte	*Iforte	*	*Icanto	*	*	*	*
*ICklav	*ICklav	*	*ICvox	*	*	*	*
*clefF4	*clefG2	*	*clefG2	*	*	*	*
*k[b-e-a-d-g-]	*k[b-e-a-d-g-]	*	*k[b-e-a-d-g-]	*	*	*	*
*b-:	*b-:	*	*b-:	*	*	*	*
*M6/8	*M6/8	*	*M6/8	*	*	*	*
=1	=1	=1	=1	=1	=1	=1	=1
*	*^	*	*^	*	*	*	*
*	*	*^	*	*	*	*	*	*	*
*M3/4	*M3/4	*	*	*	*M3/4	*	*	*	*	*
!LO:TX:t=P:problem=metrum 3/4 w nawiasie obok 6/8	!LO:TX:t=P:problem=metrum 3/4 w nawiasie obok 6/8	!	!	!	!LO:TX:t=P:problem=metrum 3/4 w nawiasie obok 6/8	!	!	!	!	!
!	!	!	!	!	!LO:TX:B:a:t=Andante mesto.	!	!	!	!	!
(8EE-~/L 8E-	(8.f/L	8d-\L	4An\	pp <	4r	4ryy	.	.	.	.
8CCn/J) 8Cn	.	16dn\L	.	.	.	.	.	.	.	.
.	16g-/L	16e-\	.	.	.	.	.	.	.	.
(8EEE-~/L 8EE-	16gn/	16en\	8B-\ 8c	.	4r	4ryy	.	.	.	.
.	16ggn~/JJ	16b-\JJ 16een	.	.	.	.	.	.	.	.
8CCC/J) [<8CC	8ddn~/L 8ff#X	16an\LL	4rFyy	[ >	.	.	.	.	.	.
.	.	16a-X\J	.	.	.	.	.	.	.	.
(16CC/KL] 16C	8e-X/ 8b-X	8g-X\	.	.	8r	8ryy	.	.	.	.
8DD-/ 8D-	.	.	.	.	.	.	.	.	.	.
*	*	*	*	*	*	*cue	*	*ij	*	*
.	8c/J) 8g-	8An\J	8ryy	.	16r	16g-\	.	Ses	.	.
*	*	*	*	*	*	*Xcue	*	*	*	*
16DDn/Jk) 16Dn	.	.	.	.	16g-/	16ryy	Na	che-	Auf	.
*	*	*	*	*	*v	*v	*	*	*	*
=2	=2	=2	=2	=2	=2	=2	=2	=2	=2
(8EE-~/L 8E-	(8.f/L	8d-\L	4An\	] <	8.f/	pus-	-veux	hoh-	.
8CC/J) 8C	.	16dn\L	.	.	.	.	.	.	.
.	16g-/L	16e-\	.	.	16g-/	-tej	s'em-	-les	.
(8EEE-~/L 8EE-	16gn/	16en\	8B-\ 8c	.	16gn/	trzci-	-me-	Schlif-	.
.	16ggn~/JJ	16b-\JJ 16een	.	.	16g/	-nie	-lent	-rohr	.
8CCC/J) [<8CC	8ddn~/L 8ff#X	16an\LL	4rFyy	[ >	16r	.	.	.	.
.	.	16a-X\J	.	.	16ddn\	roz-	aux	.	.
(16CC/KL] 16C	8e-X/ 8b-X	8g-X\	.	.	8ee-\	-pią-	joncs	spann't	.
8DD-X/ 8D-X	.	.	.	.	.	.	.	.	.
.	8c/J) 8g-	8An\J	8ryy	.	16g-X/	-łem	du	ich	.
16DDn/Jk) 16Dn	.	.	.	.	16g-/	jej	ri-	ihr	.
*	*	*v	*v	*	*	*	*	*	*
!!LO:LB:g=original
=3	=3	=3	=3	=3	=3	=3	=3	=3
*^	*	*	*	*	*	*	*	*
8E-/L	4EE-\	(8.fn~/L	8An\L 8d-	]	[4f~>/	włos	-va-	Haar,	.
8E-/J	.	.	8A\J 8d-	.	.	.	.	.	.
.	.	16en/Jk)	.	.	.	.	.	.	.
!LO:TX:t=P:problem=bemol w nawiasie	!	!	!	!	!	!	!	!	!
8E-X/L	4EEn\	(8.en~/L	8A-X\L 8c	>	8f/]	.	-ge,	.	.
8E-/J	.	.	8A-\J 8c	.	16rZ	.	.	.	.
!	!	!LO:TX:i:b:t=allarg.	!	!	!	!	!	!	!
.	.	16e-X/Jk)	.	.	16e-X/	nad	les	am	.
8E-/L	4FF\	(8.e-~/L	8Gn\L 8Bn	.	8.e-/	snią-	ar-	Bach	.
8E-/J	.	.	8G\J 8B	.	.	.	.	.	.
.	.	16dn/Jk)	.	.	16dn/	-cą	-bres	die	.
=4	=4	=4	=4	=4	=4	=4	=4	=4	=4
8E-/L 8A-	2AA-~\	([4dn/	8F-X\L 8c-X	] <	([4dn/	rze-	pen-	Bau-	.
8E-/J 8A-	.	.	8F-\J 8c-	.	.	.	.	.	.
8E-/L 8A-	.	8d/L]	8F-\L 8c-	.	8d/L]	.	-chent	.	.
8E-/J 8A-	.	8e-/J	8F-\J 8c-	.	8e-/J)	.	.	.	.
!	!LO:TX:t=P:problem=bemol w nawiasie	!	!	!	!	!	!	!	!
8AA-/L	4AAA-\ 4EE-X	8en/L	8Fn\L 8cn	.	8en/	-ką	sur	-me	.
8AA-/J	.	8ccn/J)	8c\J 8e	[	8ccn\	schy-	l'eau	.	.
=5	=5	=5	=5	=5	=5	=5	=5	=5	=5
!LO:TX:t=P:problem=bemol w nawiasie	!	!	!	!	!	!	!	!	!
(8AAA-~/L 8EE-X 8AA-	4ryy	((8.cc~/L	(8c\L 8en	.	4cc\	-li-	leur	neig-	.
!	!	!	!LO:TX:t=P:problem=bemol w nawiasie	!	!	!	!	!	!
8D-/J) 8F	.	.	8d-X\J) 8f	.	.	.	.	.	.
.	.	16bn/Jk)	.	.	.	.	.	.	.
(8D-/L 8F	4AA-\	(8.b~/L	(8d-\L 8f	<	4dd-\	-ły	noir	-ten	.
8Dn/J) 8F#X	.	.	8dn\J) 8f#X	.	.	.	.	.	.
.	.	16b-X/Jk)	.	.	.	.	.	.	.
(8D/L 8F#	4AA-\	(8.b-~/L	(8d\L 8f#	.	4ddn\	się	feuil-	sich	.
8E-X/J) 8Gn	.	.	8e-X\J) 8gn	.	.	.	.	.	.
.	.	16an/Jk))	.	.	.	.	.	.	.
!!LO:PB:g=original
=6	=6	=6	=6	=6	=6	=6	=6	=6	=6
!LO:TX:i:b:t=ten.	!	!	!	!	!	!	!	!	!
8ryy	8CCC^/ 8GGGn 8CC	((8.e-~/L 8.ee-	8gn\L 8an	[	2ee-X\	drze-	-la-	nie-	.
8E-/ 8Gn 8An	[8AAn\	.	8g\J 8a	.	.	.	.	.	.
.	.	16dn/Jk) 16ddn	.	.	.	.	.	.	.
8E-/L 8G 8A	2AA\]	(8.d~/L 8.dd	8g\L 8a	.	.	.	.	.	.
8E-/J 8G 8A	.	.	8g\J 8a	.	.	.	.	.	.
.	.	16d-X/Jk) 16dd-X	.	.	.	.	.	.	.
8E-/L 8G 8A	.	(8.d-~/L 8.dd-	8g\L 8a	.	4an/	-wa	-ge,	-der.	.
8E-/J 8G 8A	.	.	8g\J 8a	.	.	.	.	.	.
.	.	16c/Jk)) 16cc	.	.	.	.	.	.	.
*v	*v	*	*	*	*	*	*	*	*
*	*v	*v	*	*	*	*	*	*
=7	=7	=7	=7	=7	=7	=7	=7
*M9/8	*M9/8	*	*M9/8	*	*	*	*
*^	*	*	*	*	*	*	*
!LO:TX:i:b:t=ten.	!	!LO:TX:i:a:t=ten.	!	!	!	!	!	!
16r	(8GGGn^\ (8DDn ((8GGn	(16Bn^>/ 16f 16bn	ppp	8r	.	.	.	.
16f/LL)	.	16ff\LL 16fff	.	.	.	.	.	.
(16en/	8Fn\L 8G- 8Bn	(16een\ 16eeen	.	[4bn~\	wiatr	sur	Still	.
16f/)	.	16ff\) 16fff	.	.	.	.	.	.
(16e-X/	8F\J 8G- 8B	(16ee-X\ 16eee-X	.	.	.	.	.	.
16en/JJ)	.	16een\JJ)) 16eeen	.	.	.	.	.	.
16C#X/LL	(8CC#X^\ (8GG#X (8C#	((16ddn~\LL 16ee#X 16gg#X 16bbn 16dddn	.	8b\]	.	la	.	.
16d#X/	.	16dd#X\) 16ddd#X	.	.	.	.	.	.
(16c#X/	8E#X\L 8G#X	(16cc#X\ 16ccc#X	.	8b\	ci-	tom-	weint	.
16dn/)	.	16ddn\) 16dddn	.	.	.	.	.	.
(16cn/	8E#\J 8G#	(16ccn\ 16cccn	.	8ccn\	-cho	-be	der	.
16d-X/JJ)	.	16dd-X\JJ 16ddd-X	.	.	.	.	.	.
!	!	!LO:TX:i:a:t=ten.	!	!	!	!	!	!
16DD-X/LL	8DDD-X\ 8DD-	16ee-X^\)) 16ggn 16bb-X 16eee-X	.	4dd-X\	pła-	un	Wind,	.
(16Gn/	.	((16gn\LL 16gg	.	.	.	.	.	.
(16F#X/	8BB-\L 8E-X	(16f#X\) 16ff#X	.	.	.	.	.	.
16G/)	.	16g\) 16gg	.	.	.	.	.	.
(16Fn/	8BB-\J	(16fn\ 16ffn	.	8gn/	-cze	oi	der	.
16F-X/JJ)	.	16f-X\JJ)) 16ff-X	.	.	.	.	.	.
*v	*v	*	*	*	*	*	*	*
!!LO:LB:g=original
=8	=8	=8	=8	=8	=8	=8	=8
*M3/4	*M3/4	*	*M3/4	*	*	*	*
*^	*^	*	*	*	*	*	*
*	*^	*	*	*	*	*	*	*	*
8D-/L)	8DD-\L	8E-/	((8.e-X~/L 8.ee-X	8gn\L 8cc-X	.	8.ee-X~\	ptak	seau	To-	.
8D-/J	8DD-\J	8ryy	.	8g\J 8cc-	.	.	.	.	.	.
.	.	.	16dn/Jk) 16ddn	.	.	16ddn\	mo-	si-	-ten	.
!LO:TX:t=P:problem=bemol w nawiasie	!	!	!	!	!	!	!	!	!	!
8Dn/L	8DD-X\L	4ryy	(8.d~/L 8.dd	8g\L 8cc-	.	8.dd~\	-gil-	-ni-	vo-	.
8D/J	8DD-\J	.	.	8g-X\J 8cc-	.	.	.	.	.	.
.	.	.	16d-X/Jk) 16dd-X	.	.	16dd-X\	-ny	-stre	-gel	.
8E-/L	8DD-\L	4ryy	(8.d-~/L 8.dd-	8f\L 8a-	.	8dd-~\	śpie-	pleu-	singt:	.
8E-/J	8DD-\J	.	.	8f\J 8a-	.	8cc\	-wa,	-re	.	.
.	.	.	16cn/Jk)) 16ccn	.	.	.	.	.	.	.
*	*v	*v	*	*	*	*	*	*	*	*
=9	=9	=9	=9	=9	=9	=9	=9	=9	=9
8DDD-/ 8DD-	8ryy	(8.f/L	[8An\L 8d-	pp <	4r	.	.	.	.
8Dn/L	8DD-X\L	.	8A\] 8dn	.	.	.	.	.	.
.	.	16g-X/L	.	.	.	.	.	.	.
8D-X/J	8DD-\J	16gn/	16B-\L 16en	.	8r	.	.	.	.
.	.	16ggn/JJ	16b-\JJ 16een	.	.	.	.	.	.
8.C/L	8DD-\L	8ddn/L 8ff#X	16an\LL	[ >	16r	.	.	.	.
.	.	.	16a-X\J	.	16ddn\	to	mon	mein	.
.	8DD-\	8e-X/ 8b-X	8g-X\	.	(8.ee-^\	los	sort,	Schick-	.
16D-/K	.	.	.	.	.	.	.	.	.
8Dn/J	8DD-\J	8c/J) 8g-	8An\J	.	.	.	.	.	.
!	!	!	!	!	!LO:TX:t=P:problem=bemol w nawiasie	!	!	!	!
.	.	.	.	.	16g-X/)	mój,	.	-sal,	.
=10	=10	=10	=10	=10	=10	=10	=10	=10	=10
8E-/L	8DD-\L	(8.f/L	8An\L 8d-	] <	4r	.	.	.	.
8Dn/	8DD-X\	.	8A\ 8dn	.	.	.	.	.	.
.	.	16g-X/L	.	.	.	.	.	.	.
8D-X/J	8DD-\J	16gn/	16B-\L 16en	.	4r	.	.	.	.
.	.	16ggn/JJ	16b-\JJ 16een	.	.	.	.	.	.
[8C/L	8DD-\L	8ddn/L 8ff#X	16an\LL	[ >	.	.	.	.	.
.	.	.	16a-X\J	.	.	.	.	.	.
16C/L]	8DD-\	8e-X/ 8b-X	8g-X\	.	8r	.	.	.	.
16D-/	.	.	.	.	.	.	.	.	.
16Dn/	8DD-X\J	8c/J) 8g-	8An\J	.	8e-/	mój	mon	mein	.
16E-/JJ	.	.	.	.	.	.	.	.	.
*v	*v	*	*	*	*	*	*	*	*
!!LO:LB:g=original
=11	=11	=11	=11	=11	=11	=11	=11	=11
!	!	!	!	!LO:TX:i:a:t=poco rallent.	!	!	!	!
8DD-/L 8E-X	(8.f~/L	8An\L 8d-X	]	4e-/	los!	sort:	Los!	.
8DD-/J 8E-X	.	8A\J 8d-	.	.	.	.	.	.
.	16en/Jk)	.	.	.	.	.	.	.
8DDn/L 8Dn	(8.e~/L	8A-X\L 8c	.	4r	.	.	.	.
8DD/J 8D	.	8A-\J 8c	.	.	.	.	.	.
.	16e-X/Jk)	.	.	.	.	.	.	.
8EE-X/L 8D-X	(8.e-~/L	8Gn\L 8c-X	.	8r	.	.	.	.
8EE-/J 8D-	.	8G\J 8c-	.	8f/	Głę-	Son-	Ge-	.
.	16dn/Jk)	.	.	.	.	.	.	.
=12	=12	=12	=12	=12	=12	=12	=12	=12
*^	*	*	*	*	*	*	*	*
!LO:TX:i:b:t=ten.	!	!	!	!	!LO:TX:i:a:t=poco avvivando	!	!	!	!LO:DY:a:rj
8CCn^/L 8GGn 8Cn	8ryy	(4.f#X/	8A-X\L 8e-X	pp <	4.f#X/	-bi-	-der	-hei-	pp <
8Gn/J 8c	[8Cn\	.	8A-\J 8e-	.	.	.	.	.	.
8G/L 8c	4C\]	.	8A-\L 8e-	.	.	.	.	.	.
8G/J 8c	.	8gn/	8A-\J 8e-	.	8gn/	-ny	les	-me	.
8GGn/L 8C	4CC\	4g#X/)	8G#X\L 8en	.	8.g#X/	taj-	grands	Tie-	.
8GG/J 8C	.	.	8G#\J 8e	.	.	.	.	.	.
.	.	.	.	[	16een\	-ne	my-	-fen	[[
!!LO:PB:g=original
=13	=13	=13	=13	=13	=13	=13	=13	=13	=13
*	*	*	*	*	*^	*	*	*	*
*	*	*	*	*	*cue	*	*	*	*	*
!	!	!	!	!	!	!	!	!	!	!LO:DY:a
(8CCC~/L 8CC	8ryy	((8.een~/L	(8en\L 8g#X	<	8.een/	(8.ee\L	pruć	-ste-	tei-	>
8F/J) 8An	8ryy	.	8fn\J) 8an	.	.	.	.	.	.	.
.	.	16ee-X/Jk)	.	.	16ee-X/	16ee-\Jk)	.	-res,	-len,	.
*	*	*	*	*	*Xcue	*	*	*	*	*
(8F/L 8A	4C\	(8.ee-~/L	(8f\L 8a	.	4r	4ryy	.	.	.	]
8G-X/J) 8B-X	.	.	8g-X\J) 8b-X	.	.	.	.	.	.	.
.	.	16ddn/Jk)	.	.	.	.	.	.	.	.
(8G-/L 8B-	4C\	(8.dd~/L	(8g-\L 8b-	.	8r	8ryy	.	.	.	.
8Gn/J) 8Bn	.	.	8gn\J) 8bn	.	8fn/	8ryy	mil-	bri-	ver-	.
.	.	16dd-X/Jk))	.	[	.	.	.	.	.	.
=14	=14	=14	=14	=14	=14	=14	=14	=14	=14	=14
!LO:TX:i:b:t=ten.	!	!	!	!	!	!	!	!	!	!
8CC/L 8GGn 8C	8ryy	(4.f#X~/	8A-X\L 8e-X	<	4.f#X/	4.ryy	-cze-	-ser	-stock-	.
8Gn/J 8c	[8C\	.	8A-\J 8e-	.	.	.	.	.	.	.
8G/L 8c	4C\]	.	8A-\L 8e-	.	.	.	.	.	.	.
8G/J 8c	.	8gn/	8A-\J 8e-	.	8gn/	8r	-nie	les	-tes	.
*	*	*	*	*	*	*cue	*	*	*	*
8GGn/L 8C	4CC\	4g#X/)	8G#X\L 8en	.	8.g#X/	8g#X\	głu-	mor-	Schwei-	.
8GG/J 8C	.	.	8G#\J 8e	.	.	16g#\	.	-nes	.	.
*	*	*	*	*	*	*Xcue	*	*	*	*
.	.	.	.	.	16een\	16ryy	-che	si-	-gen	.
!!LO:LB:g=original
=15	=15	=15	=15	=15	=15	=15	=15	=15	=15	=15
(8CCC/L 8CC	8ryy	((8.een~/L	(8en\L 8g#X	[	8.een^\	4ryy	mą-	-len-	mur-	.
8F/J) 8An	8ryy	.	8fn\J) 8an	.	.	.	.	.	.	.
.	.	16dd#X/Jk)	.	.	16dd#X\	.	-cić	-ces,	-ben,	.
(8F/L 8A	4C\	(8.dd#~/L	(8f\L 8a	<	8r	4ryy	.	.	.	.
8G-X/J) 8B-X	.	.	8g-X\J) 8b-X	.	8ddn\	.	ja-	com-	als	.
.	.	16ddn/Jk)	.	.	.	.	.	.	.	.
*	*	*	*	*	*	*cue	*	*	*	*
!	!	!	!	!	!LO:TX:a:t=Ossia	!	!	!	!	!
(8G-/L 8B-	4C\	(8.dd~/L	(8g-\L 8b-	.	8ee\	8ddn/	-ko	-me	ein	.
8Gn/J) 8Bn	.	.	8gn\J) 8bn	.	8ffn\	8cc#X/	stra-	une	ver-	.
*	*	*	*	*	*	*Xcue	*	*	*	*
.	.	16dd-X/Jk))	.	.	.	.	.	.	.	.
*v	*v	*	*	*	*	*	*	*	*	*
=16	=16	=16	=16	=16	=16	=16	=16	=16	=16
*	*	*	*	*	*cue	*	*	*	*
(8EEEn/L (8EEn	(8.gn~/L 8.ggn	8b-X\L 8cc#X	.	4.ggn~\	4ggn/	-co-	tri-	-lor-	.
(8C#X/J 8Gn 8c#X	.	8b-\J 8cc#	.	.	.	.	.	.	.
.	16f#X/Jk) 16ff#X	.	.	.	.	.	.	.	.
8C#~\L 8G 8c#	(8.f#~/L 8.ff#	8b-\L 8cc#	.	.	8gg/	.	-ste	.	.
*	*	*	*	*	*Xcue	*	*	*	*
8C#~\J 8G 8c#	.	8b-\J 8cc#	.	8cc#X\	8ryy	-na	e-	-ner	.
.	16fn/Jk) 16ffn	.	.	.	.	.	.	.	.
8C#~\L 8G 8c#	(8.f/L 8.ff	8b-\L 8cc#	.	8.cc#\	4ryy	łódź	-pa-	Kahn	.
8C#~\J) 8G 8c#	.	8b-\J 8cc#	.	.	.	.	.	.	.
.	16en/Jk) 16een	.	[	16een\	.	od	-ve	vom	.
=17	=17	=17	=17	=17	=17	=17	=17	=17	=17
*	*	*	*	*	*cue	*	*	*	*
(8CC~/L [<8C	(4.en^/ 4.een	8f#X\L 8an	.	4.een\	4ee/	brze-	fen-	stei-	.
8C/J]) 8F#X 8An	.	8f#\J 8a	.	.	.	.	.	.	.
(8CC-X~/L [<8C-X	.	8fn\L 8a-X	<	.	8ee/	.	-dre	.	.
*	*	*	*	*	*Xcue	*	*	*	*
8C-/J]) 8Fn 8A-X	8e-X/ 8ee-X	8f\J 8a-	.	8dd#X\	8ryy	-gu	les	-len	.
(8BBB-X~/L 8BB-X	8dn/L 8ddn	8f\L 8a-	.	8ddn\	4ryy	się	som-	U-	.
8A-/J) 8dn	8f/J) 8ff	8f\J 8a-	.	8ffn\	.	od-	-bres	-fer	.
!!LO:LB:g=original
=18	=18	=18	=18	=18	=18	=18	=18	=18	=18
!	!	!	!	!LO:TX:i:a:t=avvivando	!	!	!	!	!
(8EEEn/L (8EEn	(8.g#X~/L 8.gg#X	8bn\L 8ddn	.	4.gg#X\	4.ryy	-trą-	va-	sto-	.
(8Dn/J 8G#X 8dn	.	8b\J 8dd	.	.	.	.	.	.	.
.	16gn/Jk) 16ggn	.	.	.	.	.	.	.	.
8D~\L 8G# 8d	(8.g~/L 8.gg	8b\L 8dd	[ <	.	.	.	.	.	.
8D~\J 8G# 8d	.	8b\J 8dd	.	8ddn\	8ryy	-cić,	-gues	-sen,	.
.	16f#X/Jk) 16ff#X	.	.	.	.	.	.	.	.
*	*	*	*	*	*cue	*	*	*	*
8D~\L 8G# 8d	(8.fn~/L 8.ffn	8b\L 8dd	.	8ryy	8ff#X/	.	et	Ster	.
*	*	*	*	*	*Xcue	*	*	*	*
8D~\J) 8G# 8d	.	8b\J 8dd	.	8ffn\	8ryy	mieć	ser-	ne	.
.	16fn/Jk) 16ffn	.	.	.	.	.	.	.	.
=19	=19	=19	=19	=19	=19	=19	=19	=19	=19
(8DD-X~/L [<8D-X	(4.f^/ 4.ff	8gn\L 8b-X	.	(<8ffn\	4ryy	gwiaz-	-mer	ha-	.
8D-/J]) 8Gn 8B-X	.	8g\J 8b-	.	8b-X\)	.	-dy,	.	-ben,	.
(8CCn~/L [<8Cn	.	8f#X\L 8an	.	4r	4ryy	.	.	.	.
8C/J]) 8F#X 8An	8en/ 8een	8f#\J 8a	.	.	.	.	.	.	.
(8BBBn~/L 8BBn	8d#X/L 8dd#X	8f#\L 8a	.	8dd#X\	8ryy	gwiaz-	les	Ster-	.
*	*	*	*	*	*cue	*	*	*	*
8An/J) 8d#X	8f#X/J) 8ff#X	8f#\J 8a	.	8ff#X\	16ff#X/	-dy	e-	-ne ver-	.
.	.	.	[	.	16ff#/	.	.	.	.
*	*	*	*	*	*Xcue	*	*	*	*
*	*	*	*	*v	*v	*	*	*	*
!!LO:PB:g=original
=20	=20	=20	=20	=20	=20	=20	=20	=20
!LO:TX:i:b:t=ten.	!	!	!	!	!	!	!	!
(8FFFn/L (8FFn	(8.an~/L 8.aan	8ccn\L 8ee-X	f	2aan\	rzu-	-toi-	-lie-	.
(8E-X~/J 8An 8e-X	.	8cc\J 8ee-	.	.	.	.	.	.
.	16a-X/Jk) 16aa-X	.	.	.	.	.	.	.
8E-~\L 8A 8e-	(8.a-~/L 8.aa-	8cc\L 8ee-	.	.	.	.	.	.
8E-~\J 8A 8e-	.	8cc\J 8ee-	.	.	.	.	.	.
.	16gn/Jk) 16ggn	.	.	.	.	.	.	.
8E-~\L 8A 8e-	(8.g~/L 8.gg	8cc\L 8ee-	.	4ee-X\	-cić	-les,	-ren,	.
8E-~\J) 8A 8e-	.	8cc\J 8ee-	.	.	.	.	.	.
.	16g-X/Jk) 16gg-X	.	.	.	.	.	.	.
=21	=21	=21	=21	=21	=21	=21	=21	=21
!LO:TX:i:b:t=ten.	!	!	!LO:HP:t=dimin.	!	!	!	!	!
(8DDDn/L (8DDn	(8.f#X^/L 8.ff#X	4.ccn^\	>	4r	.	.	.	.
(8C~/J 8Dn 8F#X 8c	.	.	.	.	.	.	.	.
.	16fn/Jk) 16ffn	.	.	.	.	.	.	.
8C~\L 8D 8F#X 8c	(8.f~/L 8.ff	.	.	8r	.	.	.	.
8C~\J 8D 8F# 8An	.	8an^\L	.	8an/	i	.	und	.
.	16en/Jk) 16een	.	.	.	.	.	.	.
8C~\L 8D 8F# 8B-X	(8.e~/L 8.ee	8b-^\	.	8b-X\	tyl-	et	nichts	.
8C~\J) 8D 8F# 8Bn	.	8bn^\J	.	8bn\	-ko	chan-	als	.
.	16e-X/Jk) 16ee-X	.	.	.	.	.	.	.
!!LO:LB:g=original
=22	=22	=22	=22	=22	=22	=22	=22	=22
*^	*	*^	*	*^	*	*	*	*
!	!	!	!	!	!LO:HP:t=dimin. molto	!	!	!	!	!	!
8r	8BBBBn\L 8BBBn	4d#X~/ 4dd#X	(<8.an^\L	4ryy	>	(2ccn~\	2ryy	piosn-	-ter	Lie-	.
(16c/LL	(8AAn\J 8D#X	.	.	.	.	.	.	.	.	.	.
16Bn/JJ)	.	.	16g#X\Jk)	.	.	.	.	.	.	.	.
(8.B/L	8AA\L 8D#	4cc~/	(>8.g#X^/L	8c\L	.	.	.	.	.	.	.
.	8AA\J 8D#	.	.	8c\J	.	.	.	.	.	.	.
16A#X/Jk)	.	.	16gn/Jk)	.	.	.	.	.	.	.	.
*	*	*	*	*	*	*	*cue	*	*	*	*
!	!	!	!	!	!	!LO:TX:i:a:t=ral-len-tan-do	!	!	!	!	!
(8.A#/L	8AA\L 8D#	4cc~/	(8.g^/L	8c\L	.	4g-X/)	8g-\	-kę	ma	-der	.
.	8AA\J) 8D#	.	.	8c\J	.	.	8g-\	.	de	.	.
*	*	*	*	*	*	*	*Xcue	*	*	*	*
16An/Jk)	.	.	16f#X/Jk)	.	.	.	.	.	.	.	.
*	*	*	*	*	*	*v	*v	*	*	*	*
=23	=23	=23	=23	=23	=23	=23	=23	=23	=23	=23
8FFFn/L 8FFn	8ryy	2an~/	(>8.gn/L	8An\L 8e-	>	2an/	nu-	tres-	stam-	.
[<8FF/J 8E- 8F	8ryy	.	.	8A\J 8e-	.	.	.	.	.	.
.	.	.	16g-X/Jk)	.	.	.	.	.	.	.
8E-/L 8F	&([2FF\_	.	(>8.g-/L	8A\L 8dn	.	.	.	.	.	.
8E-/J 8F	.	.	.	8A\J 8d	.	.	.	.	.	.
.	.	.	16f/Jk)	.	.	.	.	.	.	.
8E-/L 8F	.	4A~/ [<4f	4ryy	(<8.d\L	.	4e-X/	-cić	-se	-mein	.
8E-/J 8F 8An	.	.	.	.	.	.	.	.	.	.
.	.	.	.	16d-X\Jk)	.	.	.	.	.	.
*v	*v	*	*	*	*	*	*	*	*	*
=24	=24	=24	=24	=24	=24	=24	=24	=24	=24
!	!	!	!	!	!LO:TX:B:a:t=Tempo I	!	!	!	!
8FF/L] 8E- 8F	(8.f/L]	8d-\L	4An\	] p <	4r	.	.	.	.
8CC/J&) 8C	.	16dn\L	.	.	.	.	.	.	.
.	16g-/Jk	16e-\JJ	.	.	.	.	.	.	.
(8EEE-X/L 8EE-X	16gn/LL	16en\LL	8B-\ 8c	.	8r	.	.	.	.
.	16ggn/J	16b-\ 16een	.	.	.	.	.	.	.
8CCC/J) [<8CC	8ddn/J 8ff#X	16an\	4rFyy	[ >	16r	.	.	.	.
.	.	16a-X\JJ	.	.	16ddn\	to	tel	das	.
(16CC/KL] 16C	8e-X/L 8b-X	8g-X\L	.	.	8.ee-^\	los	est	ist	.
8DD-/ 8D-	.	.	.	.	.	.	.	.	.
.	8c/J) 8g-	8An\J	8ryy	.	.	.	.	.	.
16DDn/Jk) 16Dn	.	.	.	.	16g-X/	mój	mon	mein	.
!!LO:LB:g=original
=25	=25	=25	=25	=25	=25	=25	=25	=25	=25
(8EE-/L 8E-	(8.f/L	8d-\L	4An\	] <	8.f~>/	los,	sort,	Los,	.
8CC/J) 8C	.	16dn\L	.	.	.	.	.	.	.
.	16g-/Jk	16e-\JJ	.	.	16r	.	.	.	.
(8EEE-X/L 8EE-X	16gn/LL	16en\LL	8B-\ 8c	.	8r	.	.	.	.
.	16ggn/J	16b-\ 16een	.	.	.	.	.	.	.
8CCC/J) [<8CC	8ddn/J 8ff#X	16an\	4rFyy	[ >	4r	.	.	.	.
.	.	16a-X\JJ	.	.	.	.	.	.	.
(16CC/KL] 16C	8e-X/L 8b-X	8g-X\L	.	.	.	.	.	.	.
8DD-/ 8D-	.	.	.	.	.	.	.	.	.
.	8c/J) 8g-	8An\J	8ryy	.	8e-X/	mój	mon	mein	.
16EE-X/Jk) 16E-X	.	.	.	.	.	.	.	.	.
*	*	*v	*v	*	*	*	*	*	*
=26	=26	=26	=26	=26	=26	=26	=26	=26
*^	*	*	*	*	*	*	*	*
!	!	!	!	!	!LO:TX:B:a:t=Allargando	!	!	!	!
8E-/L	4FF\	(8.f~/L	8An\L 8d-	]	2e-~>/	los.	sort.	Los.	.
8E-/J	.	.	8A\J 8d-	.	.	.	.	.	.
.	.	16en/Jk)	.	.	.	.	.	.	.
8En/L	4FF\	(8.e~/L	8A\L 8d-	.	.	.	.	.	.
8E/J	.	.	8A\J 8d-	.	.	.	.	.	.
.	.	16e-X/Jk)	.	.	.	.	.	.	.
(8F/L	4FF\	(8.e-~/L	8A\L 8d-	.	4r	.	.	.	.
8G-/J)	.	.	8A\J 8d-	.	.	.	.	.	.
.	.	16dn/Jk)	.	.	.	.	.	.	.
*v	*v	*	*	*	*	*	*	*	*
*	*clefF4	*	*	*	*	*	*	*
=27	=27	=27	=27	=27	=27	=27	=27	=27
2.BBB-~/ 2.FF 2.BB-	[2.dn/	8En\ 8G- 8B-	>	2.r	.	.	.	.
.	.	4E\ 4G- 4B-	.	.	.	.	.	.
.	.	4E\ 4G- 4B-	.	.	.	.	.	.
.	.	8E\ [8G- [8B-	]	.	.	.	.	.
=28	=28	=28	=28	=28	=28	=28	=28	=28
2.BBBB-;/ 2.BBB-	2.d/]	2.E-\ 2.G-] 2.B-]	ppp	2.r;	.	.	.	.
*	*v	*v	*	*	*	*	*	*
==	==	==	==	==	==	==	==
*-	*-	*-	*-	*-	*-	*-	*-
!!!system-decoration: (s1){(s2,s3)}
!!!RDF**kern: > = above
!!!RDF**kern: < = below
!!!ENC: Berenika Jozajtis
!!!END: 2023-09-05
!!!ENC: Leszek Kubiak
!!!END: 2023-09-28
